X: 1
T: Ta me ma Chulla's na dousha me
B: A COLECTION of the most Celebrated Irish Tunes12a
M: 3/4
L: 1/8
K: Gdor
|: D2 E2 (GA) | G4 G2 | (AB) (dA) (BG) | TE4 D2 | E2 (GA) G2 | (Bc) d2 e2 | TA4 G2 |
[1 G4 AB/c/ :|[2 G6 :: f4 (fg) | Te4 d2 | (ed) (eg) (ag) | (eg) (ed) B2 | d2 e2 (ga) | Tg4 ed |
TA4 G2 | GA GE D2 | fe fg fg | ed ef ge | de dB AG | G2 E2 D2 | E2 G2 G2 |
Bc d2 e2 | TA4 G2 |[1 G4 (B/c/d/e/) :|[2 HG6 :: (G/A/B) Tc4 | TB6 | TA3 B AG | E4 D2 |
E4 G2 G2 | Bc d2 e2 | A4 G2 | G4 (G/A/B) | Tc4 g2 | TB4 g2 |
TA3 B AG | TE4 D2 | E2 (GA) G2 | (Bc) d2 e2 | TA4 G2 | G4 B/c/d/e/ :|
%%text End with the second straine
